includes/img/mailto.svg

<svg width="32" height="32" viewBox="0 0 24 24" xmlns="http://www.w3.org/2000/svg"><g fill="#fff"><path d="M2.27.95c6.53 0 13.06 0 19.58.01-3.25 3.27-6.52 6.54-9.78 9.81C8.8 7.5 5.55 4.21 2.27.95zM.99 2.62c4.65 4.52 9.22 9.11 13.98 13.51-2.57 2.05-6.19.68-9.21 1.13C2.99 15.62 2.03 12.6.54 9.98c.47-2.42.47-4.9.45-7.36zm11.52 9.41c4.22-2.04 7-6.39 10.62-9.41.01 2.23.01 4.46.02 6.7-3.07 1.3-6.26 2.33-9.17 3.99-.49-.43-.98-.85-1.47-1.28z"/><path d="M14.24 14.15c3.22-1.4 6.48-2.72 9.75-4.02l.01.82v.38c-.46 3.11-.94 6.23-1.36 9.35-.69-.57-1.37-1.13-2.05-1.7-3.22 3.25-8.01 5.24-12.54 3.65-3.73-.95-5.93-4.31-8.05-7.23v-3.75c2.05 2.37 3.15 5.85 6.36 7 3.65 1.72 7.76 0 10.36-2.76-.62-.44-1.86-1.31-2.48-1.74z"/></g></svg>

<?xml version="1.0" encoding="UTF-8" ?>
<!DOCTYPE svg PUBLIC "-//W3C//DTD SVG 1.1//EN" "http://www.w3.org/Graphics/SVG/1.1/DTD/svg11.dtd">
<svg width="24pt" height="24pt" viewBox="0 0 24 24" version="1.1" xmlns="http://www.w3.org/2000/svg">
<g id="#ffffffff">
<path fill="#ffffff" opacity="1.00" d=" M 2.27 0.95 C 8.80 0.95 15.33 0.95 21.85 0.96 C 18.60 4.23 15.33 7.50 12.07 10.77 C 8.80 7.50 5.55 4.21 2.27 0.95 Z" />
<path fill="#ffffff" opacity="1.00" d=" M 0.99 2.62 C 5.64 7.14 10.21 11.73 14.97 16.13 C 12.40 18.18 8.78 16.81 5.76 17.26 C 2.99 15.62 2.03 12.60 0.54 9.98 C 1.01 7.56 1.01 5.08 0.99 2.62 Z" />
<path fill="#ffffff" opacity="1.00" d=" M 12.51 12.03 C 16.73 9.99 19.51 5.64 23.13 2.62 C 23.14 4.85 23.14 7.08 23.15 9.32 C 20.08 10.62 16.89 11.65 13.98 13.31 C 13.49 12.88 13.00 12.46 12.51 12.03 Z" />
<path fill="#ffffff" opacity="1.00" d=" M 14.24 14.15 C 17.46 12.75 20.72 11.43 23.99 10.13 L 24.00 10.95 L 24.00 11.33 C 23.54 14.44 23.06 17.56 22.64 20.68 C 21.95 20.11 21.27 19.55 20.59 18.98 C 17.37 22.23 12.58 24.22 8.05 22.63 C 4.32 21.68 2.12 18.32 0.00 15.40 L 0.00 11.65 C 2.05 14.02 3.15 17.50 6.36 18.65 C 10.01 20.37 14.12 18.65 16.72 15.89 C 16.10 15.45 14.86 14.58 14.24 14.15 Z" />
</g>
</svg>
